!!! Genre: Scheidemann Prelude
!!! Title: 2. Praeambulum in C
!!! Phrase: 1
!!! Level: 2
**kern	**kern	**kern	**kern
*clefF4	*clefF4	*clefG2	*clefG2
*k[]	*k[]	*k[]	*k[]
*met(c)	*met(c)	*met(c)	*met(c)
*C:	*C:	*C:	*C:
=1	=1	=1	=1
1C[	1c[	1e[	2.g
.	.	.	.
.	.	.	.
.	.	.	.
.	.	.	.
.	.	.	.
.	.	.	.
.	.	.	.
.	.	.	.
.	.	.	.
.	.	.	.
.	.	.	.
.	.	.	8aL
.	.	.	.
.	.	.	8bJ
.	.	.	.
=2	=2	=2	=2
4C]	1c]	4e]	2.cc
.	.	.	.
.	.	.	.
.	.	.	.
8DL	.	8fL	.
.	.	.	.
8EJ	.	8gJ	.
.	.	.	.
4F	.	2a[	.
.	.	.	.
.	.	.	.
.	.	.	.
4E	.	.	8ddL
.	.	.	.
.	.	.	8eeJ
.	.	.	.
=3	=3	=3	=3
8DL	2d	1a]	2ff
.	.	.	.
8E	.	.	.
.	.	.	.
8F	.	.	.
.	.	.	.
8GJ	.	.	.
.	.	.	.
2A	8cL	.	8eeL
.	.	.	.
.	8B	.	8dd
.	.	.	.
.	8c	.	8ee
.	.	.	.
.	8dJ	.	8ffJ
.	.	.	.
=4	=4	=4	=4
8EL	4.e	1r	4.gg
.	.	.	.
8D	.	.	.
.	.	.	.
8E	.	.	.
.	.	.	.
8FJ	16dL	.	16ffL
.	16cJ	.	16eeJ
2G	8BL	.	8ddL
.	.	.	.
.	8A	.	8cc
.	.	.	.
.	8B	.	8dd
.	.	.	.
.	8cJ	.	8eeJ
.	.	.	.
=5	=5	=5	=5
8DL	2r	8dL	2ff
.	.	.	.
8C	.	8e	.
.	.	.	.
8D	.	8f	.
.	.	.	.
8EJ	.	8gJ	.
.	.	.	.
2F	4r	8aL	8ccL
.	.	.	.
.	.	8g	8b
.	.	.	.
.	4A	8a	8cc
.	.	.	.
.	.	8bJ	8ddJ
.	.	.	.
=6	=6	=6	=6
8CL	1G	2cc	2ee
.	.	.	.
8BB	.	.	.
.	.	.	.
8C	.	.	.
.	.	.	.
8DJ	.	.	.
.	.	.	.
2E	.	8gL	8bL
.	.	.	.
.	.	8f#	8a
.	.	.	.
.	.	8g	8b
.	.	.	.
.	.	8aJ	8ccJ
.	.	.	.
=7	=7	=7	=7
8BBL	4r	4b	2.dd
.	.	.	.
8AA	.	.	.
.	.	.	.
8BB	4B	4.g	.
.	.	.	.
8CJ	.	.	.
.	.	.	.
2D	2A	.	.
.	.	.	.
.	.	8f#	.
.	.	.	.
.	.	4g	8ddL
.	.	.	.
.	.	.	8ccJ
.	.	.	.
=8	=8	=8	=8
2GG	8GL	2g	2b
.	.	.	.
.	8A	.	.
.	.	.	.
.	8Fn	.	.
.	.	.	.
.	8GJ	.	.
.	.	.	.
2C	2E	2r	8ccL
.	.	.	.
.	.	.	8dd
.	.	.	.
.	.	.	8b
.	.	.	.
.	.	.	8ccJ
.	.	.	.
=9	=9	=9	=9
1FF	4F	1r	8aL
.	.	.	.
.	.	.	8b-
.	.	.	.
.	4E	.	8g
.	.	.	.
.	.	.	8aJ
.	.	.	.
.	4D	.	8fL
.	.	.	.
.	.	.	8g
.	.	.	.
.	4C	.	8e
.	.	.	.
.	.	.	8fJ
.	.	.	.
=10	=10	=10	=10
1GG	4BB	2r	4d
.	.	.	.
.	.	.	.
.	.	.	.
.	4.C	.	4e
.	.	.	.
.	.	.	.
.	.	.	.
.	.	4.G	2d
.	.	.	.
.	8C	.	.
.	.	.	.
.	4BB	.	.
.	.	.	.
.	.	8F	.
.	.	.	.
=11	=11	=11	=11
1CC	1C	1E	1c
=||	=||	==	==
*-	*-	*-	*-
